X:1
T:Title
%%score ( 1 2 ) ( 3 4 )
L:1/8
Q:1/4=95
M:4/4
K:C
V:1 treble nm="Grand Piano, Soprano"
V:2 treble 
V:3 bass nm="Choir Pad, The King of Glory"
V:4 bass 
V:1
 [EG]>[DF] [CE]>[CE] [CE]>[CE] [CE]2 | [C_E]>[C=E] [B,G]>[B,F] [DF]>[DF] [DF]2- | %2
w: By~Haldor~Lillenas * * * * * *||
 [DF]2 [FB]2 [FB][FA] [EG]2 | [DF]2 E2 A2 [CG]2 | [EG]>[DF] [CE]>[CE] [CE]>[CE] [CE]2 | %5
w: |||
 [CE]>[B,D] C>C C>C c2 | A2 [EG]2 [Ec][Ec] [Ge]2 | [Ec]2 [Fd]4 [Ec]2 | z2 [EG]2 [_E^F][=EG] [Ec]2 | %9
w: ||||
 [EG]2 [EG]4 [DF]2- | [DF]2 [FB]2 [F_B][F=B] [Fd]2 | [FB]2 [_EA]4 [=EG]2 | %12
w: |||
 [EG]>[EG] [Ec]>[Ec] [Ec]>[Ec] [Ge]2 | [Gc]>[Gc] [Fd]>[Fc] [Fc]>[FA] z2 | %14
w: ||
 z B/A/ [EG]2 [Ec][Ec] [Ge]2 | [Ece]2 [Fdf]4 [Ece]2- | [Ece]6 z2 |] %17
w: |||
V:2
 x8 | x8 | x8 | z2 C4 z2 | x8 | z4 z2 C2- | C2 z2 z4 | x8 | x8 | x8 | x8 | x8 | x8 | z4 z2 [Dc]2- | %14
 [Dc]2 z2 z4 | x8 | x8 |] %17
V:3
 [C,G,]>[C,G,] [C,G,]>[C,G,] [C,G,]>[C,G,] [C,G,]2 | %1
 [C,^F,]>[C,G,] [D,G,]>[D,G,] [B,,G,]>[B,,G,] [G,,G,]2- | %2
 [G,,G,]2 [G,,G,]2 [G,,G,][G,,G,] [G,,G,]2 | [G,,G,]2 [C,G,]2 F,2 [E,G,]2 | %4
 [C,G,]>[C,G,] [C,G,]>[C,G,] [C,G,]>[C,G,] [C,G,]2 | z4 z2 A,2 | z8 | G,2 [G,,G,]4 [C,G,]2 | %8
 z2 [C,C]2 [C,C][C,C] [C,G,]2 | [C,C]2 [G,C]4 [G,B,]2- | [G,B,]2 [G,D]2 [G,^C][G,D] [G,B,]2 | %11
 [G,D]2 [^F,C]4 [G,C]2 | [C,C]>[C,C] [C,G,]>[C,G,] [C,G,]>[C,G,] [C,C]2 | %13
 [E,C]>[E,C] [F,A,]>[F,A,] [F,A,]>[F,C] [^F,A,]2- | [F,A,]2 [G,C]2 [G,C][G,C] [G,C]2 | %15
 G,2 [G,,G,]4 [C,G,]2- | [C,G,]6 z2 |] %17
V:4
 x8 | x8 | x8 | x8 | x8 | [G,,G,]>[G,,F,] [C,E,]>[C,E,] [E,G,]>[E,G,] F,2- | %6
 [F,C]2 [G,C]2 G,G, [G,C]2 | x8 | x8 | x8 | x8 | x8 | x8 | x8 | x8 | x8 | x8 |] %17

